icons/glyphs/glyph-shutter.svg

<?xml version="1.0" encoding="UTF-8" standalone="no"?><svg height="22" viewBox="0 0 22 22" width="22" xmlns="http://www.w3.org/2000/svg"><sodipodi:namedview/><metadata><rdf:RDF><cc:Work><dc:format>image/svg+xml</dc:format><dc:type/><dc:title/></cc:Work></rdf:RDF></metadata><path d="m11 .000062c-1.9697239.0046-3.9020796.537983-5.5952382 1.544432l9.3291922 5.38688v-6.263645c-1.196598-.43708-2.460029-.662993-3.733954-.667667zm5.390269 1.418145v10.77997l5.434783-3.137516c-.580468-3.230749-2.573555-6.033452-5.434783-7.642454zm-12.4730849 1.181097c-2.4793386 2.086437-3.9125421 5.15986-3.9171841 8.400179.0012.04141.0025.08282.0041.124217l9.3395512-5.392056zm1.6925466 7.201484-5.4347827 3.137516c.5801816 3.231132 2.5733054 6.034265 5.4347827 7.643489zm16.3861293 1.074478-9.339545 5.39102 5.427536 3.133375c2.478952-2.086633 3.911764-5.160028 3.916149-8.400178-.0012-.04141-.0025-.08282-.0041-.124217zm-14.7298146 4.192325v6.264681c1.1965984.437079 2.4600297.662993 3.7339546.667666 1.970172-.0047 3.902916-.538476 5.596274-1.545467z" fill="#fff"/></svg>

<?xml version="1.0" encoding="UTF-8" standalone="no"?>
<!-- Created with Inkscape (http://www.inkscape.org/) -->

<svg
   xmlns:dc="http://purl.org/dc/elements/1.1/"
   xmlns:cc="http://creativecommons.org/ns#"
   xmlns:rdf="http://www.w3.org/1999/02/22-rdf-syntax-ns#"
   xmlns:svg="http://www.w3.org/2000/svg"
   xmlns="http://www.w3.org/2000/svg"
   xmlns:sodipodi="http://sodipodi.sourceforge.net/DTD/sodipodi-0.dtd"
   xmlns:inkscape="http://www.inkscape.org/namespaces/inkscape"
   width="22"
   height="22"
   viewBox="0 0 22 22"
   version="1.1"
   id="svg8"
   inkscape:version="0.92+devel 15690 custom"
   sodipodi:docname="glyphshutter.svg">
  <defs
     id="ol-defs">
    <style
       id="current-color-scheme">      .ColorScheme-Text {
        color:#d0d0d0;
        stop-color:#d0d0d0;
      }
      .ColorScheme-Background {
        color:#212121;
        stop-color:#212121;
      }
      .ColorScheme-Highlight {
        color:#0039a9;
        stop-color:#0039a9;
      }
      .ColorScheme-ViewText {
        color:#d0d0d0;
        stop-color:#d0d0d0;
      }
      .ColorScheme-ViewBackground {
        color:#19191b;
        stop-color:#19191b;
      }
      .ColorScheme-ViewHover {
        color:#005cc7;
        stop-color:#005cc7;
      }
      .ColorScheme-ViewFocus{
        color:#002466;
        stop-color:#002466;
      }
      .ColorScheme-ButtonText {
        color:#d0d0d0;
        stop-color:#d0d0d0;
      }
      .ColorScheme-ButtonBackground {
        color:#232323;
        stop-color:#232323;                             
      }                                                 
      .ColorScheme-ButtonHover {                        
        color:#005cc7;                                  
        stop-color:#005cc7;                             
      }                                                 
      .ColorScheme-ButtonFocus{                         
        color:#0039a9;                                  
        stop-color:#0039a9;                             
      }</style>
  </defs>
  <sodipodi:namedview
     id="base"
     pagecolor="#002266"
     bordercolor="#ffffff"
     borderopacity="0.46666667"
     inkscape:pageopacity="0"
     inkscape:pageshadow="2"
     inkscape:zoom="13.081476"
     inkscape:cx="16.621911"
     inkscape:cy="12.794693"
     inkscape:document-units="px"
     inkscape:current-layer="svg8"
     inkscape:document-rotation="0"
     showgrid="false"
     inkscape:showpageshadow="false"
     borderlayer="true"
     units="px"
     fit-margin-top="0"
     fit-margin-left="0"
     fit-margin-right="0"
     fit-margin-bottom="0"
     inkscape:window-width="1920"
     inkscape:window-height="1051"
     inkscape:window-x="0"
     inkscape:window-y="0"
     inkscape:window-maximized="1"
     inkscape:snap-page="true"
     inkscape:snap-object-midpoints="true"
     inkscape:snap-bbox="true"
     inkscape:snap-bbox-midpoints="true"
     inkscape:snap-center="true"
     inkscape:bbox-paths="true"
     inkscape:snap-smooth-nodes="true"
     inkscape:snap-intersection-paths="false"
     inkscape:object-paths="true" />
  <metadata
     id="metadata5">
    <rdf:RDF>
      <cc:Work
         rdf:about="">
        <dc:format>image/svg+xml</dc:format>
        <dc:type
           rdf:resource="http://purl.org/dc/dcmitype/StillImage" />
        <dc:title></dc:title>
      </cc:Work>
    </rdf:RDF>
  </metadata>
  <path
     style="vector-effect:none;fill:#ffffff;stroke:none;stroke-width:1.43101811;stroke-linecap:square;stroke-miterlimit:4;stroke-dasharray:none"
     d="M 11,6.2e-5 C 9.0302761,0.004662 7.0979204,0.538045 5.4047618,1.544494 l 9.3291922,5.38688 V 0.667729 C 13.537356,0.230649 12.273925,0.004736 11,6.2e-5 Z m 5.390269,1.418145 v 10.77997 L 21.825052,9.060661 C 21.244584,5.829912 19.251497,3.027209 16.390269,1.418207 Z M 3.9171841,2.599304 C 1.4378455,4.685741 0.004642,7.759164 0,10.999483 c 0.0012,0.04141 0.0025,0.08282 0.0041,0.124217 L 9.3436512,5.731644 Z M 5.6097307,9.800788 0.174948,12.938304 c 0.5801816,3.231132 2.5733054,6.034265 5.4347827,7.643489 z m 16.3861293,1.074478 -9.339545,5.39102 5.427536,3.133375 C 20.562803,17.313028 21.995615,14.239633 22,10.999483 21.9988,10.958073 21.9975,10.916663 21.9959,10.875266 Z M 7.2660454,15.067591 v 6.264681 C 8.4626438,21.769351 9.7260751,21.995265 11,21.999938 c 1.970172,-0.0047 3.902916,-0.538476 5.596274,-1.545467 z"
     id="path4518"
     inkscape:connector-curvature="0"
     sodipodi:nodetypes="cccccccccccccccccccccccccccc"
     inkscape:label="#glyph" />
</svg>
